packages/tokens/icons/recommendations/size24Px.svg

<svg viewBox="0 0 24 24" fill="none" xmlns="http://www.w3.org/2000/svg" width="1em" height="1em"><rect x="2.5" y="4.5" width="19" height="15" rx="1.5" stroke="currentColor"/><line x1="2.10522" y1="7.5" x2="21.2631" y2="7.5" stroke="currentColor"/><circle cx="4.5" cy="5.97363" r="0.5" fill="currentColor"/><circle cx="6.5" cy="5.97363" r="0.5" fill="currentColor"/><circle cx="8.5" cy="5.97363" r="0.5" fill="currentColor"/><path d="M9.81131 13.7833L8.69307 12.7037C8.40164 12.4223 8.54829 11.9293 8.94614 11.8529L10.6207 11.5316C10.7802 11.501 10.9149 11.3948 10.9819 11.2469L11.5446 10.0051C11.722 9.61357 12.278 9.61357 12.4554 10.0051L13.0181 11.2469C13.0851 11.3948 13.2198 11.501 13.3793 11.5316L15.0539 11.8529C15.4517 11.9293 15.5984 12.4223 15.3069 12.7037L14.1887 13.7833C14.0705 13.8974 14.0159 14.0623 14.0426 14.2243L14.3324 15.983C14.4003 16.395 13.9632 16.7038 13.5975 16.5021L12.2415 15.754C12.0912 15.671 11.9088 15.671 11.7585 15.754L10.4025 16.5021C10.0368 16.7038 9.59968 16.395 9.66757 15.983L9.95736 14.2243C9.98406 14.0623 9.92947 13.8974 9.81131 13.7833Z" stroke="currentColor" stroke-linejoin="round"/></svg>

<svg xmlns="http://www.w3.org/2000/svg" fill="none" viewBox="0 0 24 24" width="1em" height="1em"><rect width="19" height="15" x="2.5" y="4.5" stroke="currentColor" rx="1.5"/><path stroke="currentColor" d="M2.105 7.5h19.158"/><circle cx="4.5" cy="5.974" r=".5" fill="currentColor"/><circle cx="6.5" cy="5.974" r=".5" fill="currentColor"/><circle cx="8.5" cy="5.974" r=".5" fill="currentColor"/><path stroke="currentColor" stroke-linejoin="round" d="m9.811 13.783-1.118-1.08a.5.5 0 0 1 .253-.85l1.675-.321a.5.5 0 0 0 .36-.285l.564-1.242a.5.5 0 0 1 .91 0l.563 1.242a.5.5 0 0 0 .361.285l1.675.32a.5.5 0 0 1 .253.852l-1.118 1.08a.5.5 0 0 0-.146.44l.29 1.759a.5.5 0 0 1-.736.52l-1.355-.749a.5.5 0 0 0-.484 0l-1.355.748a.5.5 0 0 1-.735-.519l.29-1.759a.5.5 0 0 0-.147-.44Z"/></svg>
